X: 3808
T: A Trip to the Drakensberg
T: 8 x 40J
%
P: The Britches Maker
O:Gow Collection
R:Jig (8x40)
B:RSCDS 38-8
Z:Anselm Lingnau <anselm@strathspey.org>
M:6/8
L:1/8
K:Gm
|: A |\
"Gm"B/c/dB "D7"A/B/cA | "Gm"BGG G2"F7"A |\
"Bb"B>cd/e/ fdB | "F"AFF F2"D7"A |\
"Gm"B/c/dB "D7"A/B/cA | "Gm"GBg "F7"f2e |
"Bb"d>cB "D7"A>Bc | "Gm"dBG G2"F7"A |\
"Bb"B>cd/e/ fdB | fdB fdB |\
"Cm"c>de/f/ gec | gec "F7"gec |
"Bb"B>cd/e/ fga | "Eb"b>ag "Bb"fed |\
"Cm"cBA "D7"d2A | "Gm"BGG G2 :|\
"F7"A |\
"Bb"B>cd/e/ fdB | fdB fdB |
"Cm"c>de/f/ gec | gec"F7"gec |\
"Bb"B>cd/e/ "F"fga | "Gm"b>ag "Bb"fed |\
"Cm"cBA "D7"d2A | "Gm"BGG G2 |]
%%center Book38/3808-Trip_to_the_Drakensberg-AL.abc

%%newpage
%%center OTHER TRANSCRIPTIONS
%%sep 3 1 500
%%sep 1 1 500

%%sep 1 1 500
%%sep 1 1 500

